X:23
T:Peter O'Byrnes's Fancy
M:6/8
L:1/8
K:Amix
|:AFD c2A|BAG ~A3|AFD c2A |BAG EGD|
AFD c2A|BAG ~A3|cde dcA |AGE EGD:|
|:cde dcA|AGE c2 A| cde dcA|AGE EGD|
cde dcA|AGE c2 d|fed c2 A|BAG EGD:|
